X: 7978
T: Congress, The
R: reel
M: 4/4
K: Adorian
|:eAAG A2 B/c/d|eaaf gedg|eAA2 eAcA|BGGF GABd|
eAAG A2 B/c/d|eaaf gedB|cBcd eged|cABG A2 B/c/d:|
|:eaag a3g|eaaf gedg|egdg egdg|eaaf gedg|
eaag a3g|eaaf gedB|cBcd eged|cABG A2 B/c/d:|

